X: 8
T:Broad Cupid, Badby
M:2/4
L:1/8
A:Badby
P:A(AB3)4
K:G
P:A
|:B2 B2|B2 G2| AG AB|G2 AB|
cB AG|GA Bc|1d2 ec|B2 A2:|2A4|G4||
P:B
GA Bc|d2 d2| d2 e2|d2 d2|
e2 dd|g2 B2| d2 ec|B2 A2|
B2 B2|B2 G2| AG AB|G2 AB|
cB AG|GA Bc| A4   |G4   ||
